X:92
T:Quicks Hornpipe. Le4.092
B:L.Leadley MS#4 c1850
Z:Village Music Project, 2016 Steve Mansfield
M:C
L:1/8
Q:2/4=75
K:D
fg | afge dfed | cdec ABAG | FAdf gfed | c2A2 A2fg |
afge dfed | cdec ABAG | FAdf gedc | d2d2 d2 :|
|: cd | eAAA fAAA | eAfA gAfA | efgf edcB | A2A2 A2 AG |
FAd2 BGe2 | cABc defg | afbg fgec | d2d2 d2 :|

